lib/healthicons/icons/solid/devices/syringe.svg

<svg fill="none" height="48" viewBox="0 0 48 48" width="48" xmlns="http://www.w3.org/2000/svg"><g fill="#333"><path clip-rule="evenodd" d="m6.81815 13.3639c-.45187.4519-.45187 1.1845 0 1.6364.45187.4518 1.18449.4519 1.63636 0l.8187-.8188 4.09039 4.0905-3.2727 3.2728c-.45191.4519-.45191 1.1845 0 1.6364.4518.4519 1.1844.4519 1.6363 0l1.636-1.6361 13.9095 13.9098c1.6774 1.6775 4.1288 2.1095 6.2048 1.2961l1.1586 1.1586c.6059.6059 1.4641.8056 2.2363.5991l2.6731 2.6732c.4518.4519 1.1844.4519 1.6363 0s.4519-1.1845 0-1.6364l-2.6735-2.6736c.2059-.7719.0061-1.6295-.5994-2.2351l-1.1585-1.1585c.8136-2.0762.3816-4.5278-1.2959-6.2054l-13.9095-13.9098 1.6367-1.6367c.4519-.4519.4519-1.1845 0-1.6364-.4518-.45189-1.1845-.45188-1.6363 0l-3.2728 3.2728-4.0903-4.09045.8176-.81767c.4519-.45188.4519-1.18452 0-1.6364-.4518-.45188-1.1844-.45188-1.6363 0zm10.04025 1.4131-4.0903-4.0904-2.0807 2.0807 4.0904 4.0905zm3.2724.0004-5.3534 5.3535 4.406 4.406 5.3534-5.3535zm.6889 11.3959 2.4546 2.4547 1.6364 1.6364 1.6359 1.636c1.0997 1.0996.8487.8486 1.6364 1.6364l.5039.5039c1.0981 1.0981 2.703 1.3805 4.0618.8472l2.1388-2.1389c.5333-1.3588.2509-2.9637-.8472-4.0619l-7.8672-7.8673zm15.7027 9.9094c-.0084-.011-.0177-.0216-.0277-.0317l-.8241-.8241c-.0696.0775-.1416.1535-.2161.228-.0746.0746-.1507.1467-.2283.2163l.8241.8242c.0102.0101.0209.0194.032.0279.0505-.0898.114-.1742.1904-.2506.0762-.0762.1603-.1395.2497-.19z" fill-rule="evenodd"/><path d="m9.27321 12.7672-.70712.7071-.8187.8188c-.06134.0613-.16078.0613-.22213 0-.06135-.0614-.06135-.1609 0-.2223l6.54544-6.54554-.7071-.7071.7071.70709c.0613-.06134.1608-.06134.2221.00001.0614.06135.0614.16084 0 .2222l-.8176.81767-.7071.7071-.7071.70713-2.08071 2.08074zm4.79749 6.2118.7071-.7071.7071-.7072 2.0807-2.0807.707-.7071.7071-.7071 3.2728-3.2728c.0613-.0614.1608-.0614.2221 0 .0614.0613.0614.1608 0 .2222l-1.6367 1.6367-.7071.7071-.7071.7071-5.3534 5.3536-.7071.7071-.7071.7071-1.636 1.6361c-.0613.0613-.1608.0613-.2221 0-.0614-.0614-.0614-.1609 0-.2222zm7.7894 9.6491-2.6149-2.615.1366-.1365-.9071-.6939c-.1354-.1036-.2668-.2156-.3935-.336.2103.1998.4349.3773.6706.5322l.6805.4472.5757-.5758 5.2422-5.2424.5758-.5757-.4471-.6805c-.1534-.2334-.329-.4559-.5264-.6644.1182.1248.2282.2541.3301.3873l.6939.9071.1363-.1363 8.7345 8.7346c1.3865 1.3865 1.7458 3.4139 1.072 5.1333l-.2388.6092.4627.4627 1.1585 1.1586c.343.343.4581.829.3404 1.2702l-.1486.5571.4077.4078 2.6735 2.6736c.0614.0613.0614.1608 0 .2222-.0613.0613-.1608.0613-.2221 0l-2.6731-2.6732-.408-.408-.5574.149c-.4414.1181-.9277.0031-1.2708-.3401l-1.1586-1.1586-.4627-.4627-.6093.2388c-1.6346.6405-3.5475.3473-4.9235-.8746l2.5598-2.5598c.8423-.8424.8423-2.2082 0-3.0506l-.7071.7071.7071-.7071c-.8424-.8424-2.2082-.8424-3.0506 0l-2.5657 2.5658-.222-.222 2.5658-2.5659c.8424-.8424.8424-2.2082 0-3.0506s-2.2082-.8424-3.0506 0z" stroke="#333" stroke-width="2"/></g></svg>

<svg width="48" height="48" viewBox="0 0 48 48" fill="none" xmlns="http://www.w3.org/2000/svg">
<path fill-rule="evenodd" clip-rule="evenodd" d="M6.81815 13.364C6.36628 13.8159 6.36628 14.5485 6.81815 15.0004C7.27002 15.4523 8.00264 15.4523 8.45451 15.0004L9.27321 14.1817L13.3636 18.2721L10.0909 21.5449C9.63899 21.9968 9.63899 22.7294 10.0909 23.1813C10.5427 23.6332 11.2753 23.6332 11.7272 23.1813L13.3632 21.5452L27.2727 35.455C28.9501 37.1325 31.4015 37.5646 33.4775 36.7511L34.6361 37.9097C35.242 38.5156 36.1002 38.7153 36.8724 38.5088L39.5455 41.182C39.9973 41.6339 40.7299 41.6339 41.1818 41.182C41.6337 40.7301 41.6337 39.9975 41.1818 39.5456L38.5083 36.872C38.7142 36.1001 38.5144 35.2425 37.9089 34.6369L36.7504 33.4784C37.564 31.4022 37.132 28.9506 35.4545 27.273L21.545 13.3632L23.1817 11.7265C23.6336 11.2746 23.6336 10.542 23.1817 10.0901C22.7299 9.63824 21.9972 9.63824 21.5454 10.0901L18.2726 13.3629L14.1823 9.27248L14.9999 8.4548C15.4518 8.00292 15.4518 7.27028 14.9999 6.8184C14.5481 6.36652 13.8155 6.36652 13.3636 6.8184L6.81815 13.364ZM16.8584 14.7772L12.7681 10.6867L10.6874 12.7674L14.7778 16.8579L16.8584 14.7772ZM20.1308 14.7775L14.7774 20.131L19.1834 24.5371L24.5368 19.1835L20.1308 14.7775ZM20.8197 26.1735L23.2743 28.6281C24.6878 30.0416 23.6463 29.0001 24.9107 30.2645L26.5466 31.9005C27.6463 33.0001 27.3953 32.7492 28.183 33.5369L28.6869 34.0408C29.785 35.1389 31.3899 35.4213 32.7487 34.888L34.8875 32.7492C35.4208 31.3903 35.1384 29.7854 34.0403 28.6873L26.1731 20.8199L20.8197 26.1735ZM36.5224 36.0829C36.514 36.0718 36.5047 36.0612 36.4947 36.0512L35.6706 35.227C35.601 35.3045 35.529 35.3805 35.4545 35.455C35.3799 35.5296 35.3038 35.6017 35.2262 35.6714L36.0503 36.4955C36.0605 36.5056 36.0712 36.5149 36.0823 36.5234C36.1328 36.4337 36.1963 36.3492 36.2727 36.2728C36.3489 36.1967 36.433 36.1333 36.5224 36.0829Z" fill="#333333"/>
<path d="M9.27321 12.7672L8.56609 13.4743L7.74739 14.2931C7.68605 14.3544 7.58661 14.3544 7.52526 14.2931C7.46391 14.2317 7.46391 14.1322 7.52526 14.0708L14.0707 7.52526L13.3636 6.81816L14.0707 7.52525C14.132 7.46391 14.2315 7.46391 14.2928 7.52526C14.3542 7.58661 14.3542 7.6861 14.2928 7.74746L13.4752 8.56513L12.7681 9.27223L12.061 9.97936L9.98029 12.0601L9.27321 12.7672ZM14.0707 18.979L14.7778 18.2719L15.4849 17.5647L17.5656 15.484L18.2726 14.7769L18.9797 14.0698L22.2525 10.797C22.3138 10.7356 22.4133 10.7356 22.4746 10.797C22.536 10.8583 22.536 10.9578 22.4746 11.0192L20.8379 12.6559L20.1308 13.363L19.4237 14.0701L14.0703 19.4237L13.3632 20.1308L12.6561 20.8379L11.0201 22.474C10.9588 22.5353 10.8593 22.5353 10.798 22.474C10.7366 22.4126 10.7366 22.3131 10.798 22.2518L14.0707 18.979ZM21.8601 28.6281L19.2452 26.0131L19.3818 25.8766L18.4747 25.1827C18.3393 25.0791 18.2079 24.9671 18.0812 24.8467C18.2915 25.0465 18.5161 25.224 18.7518 25.3789L19.4323 25.8261L20.008 25.2503L25.2502 20.0079L25.826 19.4322L25.3789 18.7517C25.2255 18.5183 25.0499 18.2958 24.8525 18.0873C24.9707 18.2121 25.0807 18.3414 25.1826 18.4746L25.8765 19.3817L26.0128 19.2454L34.7473 27.98C36.1338 29.3665 36.4931 31.3939 35.8193 33.1133L35.5805 33.7225L36.0432 34.1852L37.2017 35.3438C37.5447 35.6868 37.6598 36.1728 37.5421 36.614L37.3935 37.1711L37.8012 37.5789L40.4747 40.2525C40.5361 40.3138 40.5361 40.4133 40.4747 40.4747C40.4134 40.536 40.3139 40.536 40.2526 40.4747L37.5795 37.8015L37.1715 37.3935L36.6141 37.5425C36.1727 37.6606 35.6864 37.5456 35.3433 37.2024L34.1847 36.0438L33.722 35.5811L33.1127 35.8199C31.4781 36.4604 29.5652 36.1672 28.1892 34.9453L30.749 32.3855C31.5913 31.5431 31.5913 30.1773 30.749 29.3349L30.0419 30.042L30.749 29.3349C29.9066 28.4925 28.5408 28.4925 27.6984 29.3349L25.1327 31.9007L24.9107 31.6787L27.4765 29.1128C28.3189 28.2704 28.3189 26.9046 27.4765 26.0622C26.6341 25.2198 25.2683 25.2198 24.4259 26.0622L21.8601 28.6281Z" fill="#333333" stroke="#333333" stroke-width="2"/>
</svg>
